X: 012
M: C
L: 1/8
K: D
defg afed | egBe dcBA |\
defg afed | Bdce d3 :|\
|: e |\
cAAc (3(efg) fe | fddf (3(fga) gf |
gfed cBAG | FdBg Te3A |\
defg afed | egBe dcBA |\
defg afed | Bdce d3 :|

